src/images_karasa_jaga_svg/cmd/lc_basicshapes.diamond.svg

<svg height="24" viewBox="0 0 24 24" width="24" xmlns="http://www.w3.org/2000/svg" xmlns:xlink="http://www.w3.org/1999/xlink"><linearGradient id="a" gradientUnits="userSpaceOnUse" x1="19.061028" x2="108.936451" y1="108.937712" y2="19.062289"><stop offset="0" stop-color="#fff"/><stop offset=".46428573" stop-color="#fff"/><stop offset=".78125" stop-color="#f1f1f1"/><stop offset=".90625" stop-color="#eaeaea"/><stop offset="1" stop-color="#dfdfdf"/></linearGradient><linearGradient id="b" gradientUnits="userSpaceOnUse" x1="16" x2="112" y1="64" y2="64"><stop offset="0" stop-color="#7c9fcf"/><stop offset=".5" stop-color="#7c9ece"/><stop offset="1" stop-color="#7b9dcf"/></linearGradient><g transform="matrix(.12238992 -.12238991 .12238992 .12238991 -3.66591 12)"><path d="m16 12.001953a3.9983437 3.9983437 0 0 0 -3.998047 3.998047v96a3.9983437 3.9983437 0 0 0 3.998047 3.99805h96a3.9983437 3.9983437 0 0 0 3.99805-3.99805v-96a3.9983437 3.9983437 0 0 0 -3.99805-3.998047z" fill="url(#b)" stroke-width="1.149834" transform="matrix(.88 0 0 .88 7.68 7.68)"/><path d="m23.326133 23.327921h81.345947v81.345949h-81.345947z" fill="url(#a)" stroke-width="1.011854"/></g></svg>

<?xml version="1.0" encoding="UTF-8" standalone="no"?>
<svg
   xmlns:dc="http://purl.org/dc/elements/1.1/"
   xmlns:cc="http://creativecommons.org/ns#"
   xmlns:rdf="http://www.w3.org/1999/02/22-rdf-syntax-ns#"
   xmlns:svg="http://www.w3.org/2000/svg"
   xmlns="http://www.w3.org/2000/svg"
   xmlns:xlink="http://www.w3.org/1999/xlink"
   xmlns:sodipodi="http://sodipodi.sourceforge.net/DTD/sodipodi-0.dtd"
   xmlns:inkscape="http://www.inkscape.org/namespaces/inkscape"
   height="128"
   viewBox="0 0 128 128"
   width="128"
   version="1.1"
   id="svg31"
   sodipodi:docname="lc_basicshapes.diamond.svg"
   inkscape:version="0.92.3 (unknown)"
   inkscape:export-filename="/home/rizmut/Dokumen/Rizmut/Github/libreoffice-style-karasa-jaga/build/images_karasa_jaga/cmd/lc_basicshapes.diamond.png"
   inkscape:export-xdpi="16.5"
   inkscape:export-ydpi="16.5">
  <metadata
     id="metadata37">
    <rdf:RDF>
      <cc:Work
         rdf:about="">
        <dc:format>image/svg+xml</dc:format>
        <dc:type
           rdf:resource="http://purl.org/dc/dcmitype/StillImage" />
        <dc:title />
      </cc:Work>
    </rdf:RDF>
  </metadata>
  <defs
     id="defs35">
    <linearGradient
       id="linearGradient3369">
      <stop
         id="stop3372"
         offset="0"
         style="stop-color:#ffffff;stop-opacity:1;" />
      <stop
         style="stop-color:#ffffff;stop-opacity:1;"
         offset="0.46428573"
         id="stop3374" />
      <stop
         style="stop-color:#f1f1f1;stop-opacity:1;"
         offset="0.78125"
         id="stop3376" />
      <stop
         id="stop3378"
         offset="0.90625"
         style="stop-color:#eaeaea;stop-opacity:1;" />
      <stop
         id="stop3384"
         offset="1"
         style="stop-color:#dfdfdf;stop-opacity:1;" />
    </linearGradient>
    <linearGradient
       id="linearGradient7422">
      <stop
         style="stop-color:#7c9fcf;stop-opacity:1"
         offset="0"
         id="stop7424" />
      <stop
         id="stop5348"
         offset="0.5"
         style="stop-color:#7c9ece;stop-opacity:1" />
      <stop
         id="stop7426"
         offset="1"
         style="stop-color:#7b9dcf;stop-opacity:1" />
    </linearGradient>
    <linearGradient
       inkscape:collect="always"
       xlink:href="#linearGradient3369"
       id="linearGradient891"
       x1="12.933108"
       y1="115.06546"
       x2="115.06427"
       y2="12.934298"
       gradientUnits="userSpaceOnUse"
       gradientTransform="matrix(0.88,0,0,0.88,7.6798925,7.6801072)" />
    <linearGradient
       inkscape:collect="always"
       xlink:href="#linearGradient7422"
       id="linearGradient901"
       x1="16"
       y1="64"
       x2="112"
       y2="64"
       gradientUnits="userSpaceOnUse" />
  </defs>
  <sodipodi:namedview
     pagecolor="#ffffff"
     bordercolor="#666666"
     borderopacity="1"
     objecttolerance="10"
     gridtolerance="10"
     guidetolerance="10"
     inkscape:pageopacity="0"
     inkscape:pageshadow="2"
     inkscape:window-width="1366"
     inkscape:window-height="706"
     id="namedview33"
     showgrid="true"
     inkscape:zoom="2.8284271"
     inkscape:cx="15.170488"
     inkscape:cy="67.016402"
     inkscape:window-x="0"
     inkscape:window-y="0"
     inkscape:window-maximized="1"
     inkscape:current-layer="svg31"
     inkscape:snap-global="true"
     showguides="true">
    <inkscape:grid
       type="xygrid"
       id="grid844"
       spacingx="5.8181"
       spacingy="5.8181"
       empspacing="1" />
  </sodipodi:namedview>
  <linearGradient
     id="a">
    <stop
       offset="0"
       stop-color="#f9f9fa"
       id="stop2" />
    <stop
       offset="1"
       stop-color="#f9f9fa"
       stop-opacity="0"
       id="stop4" />
  </linearGradient>
  <linearGradient
     id="b"
     gradientUnits="userSpaceOnUse"
     x1="42.276669"
     x2="-13.469376"
     xlink:href="#a"
     y1="50.867565"
     y2="104.97279" />
  <linearGradient
     id="c"
     gradientUnits="userSpaceOnUse"
     x1="-1.817377"
     x2="2.172436"
     xlink:href="#a"
     y1="55.003803"
     y2="116.784" />
  <g
     id="g926"
     transform="matrix(0.71208679,-0.71208679,0.71208679,0.71208679,-27.14711,64.000002)">
    <path
       transform="matrix(0.88,0,0,0.88,7.6800002,7.6800002)"
       style="fill:url(#linearGradient901);fill-opacity:1;stroke-width:1.14983392"
       d="M 16,12.001953 A 3.9983437,3.9983437 0 0 0 12.001953,16 v 96 A 3.9983437,3.9983437 0 0 0 16,115.99805 h 96 A 3.9983437,3.9983437 0 0 0 115.99805,112 V 16 A 3.9983437,3.9983437 0 0 0 112,12.001953 Z"
       id="path893" />
    <path
       style="fill:url(#linearGradient891);fill-opacity:1;stroke-width:1.01185381"
       inkscape:connector-curvature="0"
       id="path23"
       d="M 23.326133,23.327921 H 104.67208 V 104.67387 H 23.326133 Z"
       sodipodi:nodetypes="ccccc" />
  </g>
</svg>
